X:1
T:SWEET NANCY
M:4/4
L:1/4
K:D
 z3D/2-E/2| F F FE/2-F/2| G2 AA/2-G/2|F/2-E/2 D E E| D3 D/2E/2| F F FE/2-F/2|\
 G G AA/2-G/2|F/2-E/2 D E E| D3 A| B A A d| A F G A| B AF/2-E/2 D|\
 E3 D/2E/2| F F/2F/2 F E/2F/2| G- G AA/2-G/2|F/2-E/2 D E- E| D3 z|\

